assets/media/stacked-peaks.svg

<svg height="540" viewBox="0 0 960 540" width="960" xmlns="http://www.w3.org/2000/svg"><path d="m0 104 87 54 88-33 87 6 87 32h87l88 5 87 6 87-38 87-32 88 21 87 22v-147h-87-88-87-87-87-88-87-87-87-88-87z" fill="#003223"/><path d="m0 185 87 10 88 17 87 5 87-11 87 33 88-6 87-11 87-37 87-38 88 43h87v-45l-87-22-88-21-87 32-87 38-87-6-88-5h-87l-87-32-87-6-88 33-87-54z" fill="#013b2d"/><path d="m0 228 87 21 88 38 87 22 87-6 87 33 88-38 87-16 87-22 87-5 88 32 87-32v-67h-87l-88-43-87 38-87 37-87 11-88 6-87-33-87 11-87-5-88-17-87-10z" fill="#014537"/><path d="m0 357 87 38 88-48 87 21 87 60 87 21 88-86 87 27 87-38 87 27 88-11 87 33v-148l-87 32-88-32-87 5-87 22-87 16-88 38-87-33-87 6-87-22-88-38-87-21z" fill="#024f42"/><path d="m0 541h87 88 87 87 87 88 87 87 87 88 87v-142l-87-33-88 11-87-27-87 38-87-27-88 86-87-21-87-60-87-21-88 48-87-38z" fill="#02594e"/></svg>

<svg id="visual" viewBox="0 0 960 540" width="960" height="540" xmlns="http://www.w3.org/2000/svg" xmlns:xlink="http://www.w3.org/1999/xlink" version="1.1"><path d="M0 104L87 158L175 125L262 131L349 163L436 163L524 168L611 174L698 136L785 104L873 125L960 147L960 0L873 0L785 0L698 0L611 0L524 0L436 0L349 0L262 0L175 0L87 0L0 0Z" fill="#003223"></path><path d="M0 185L87 195L175 212L262 217L349 206L436 239L524 233L611 222L698 185L785 147L873 190L960 190L960 145L873 123L785 102L698 134L611 172L524 166L436 161L349 161L262 129L175 123L87 156L0 102Z" fill="#013b2d"></path><path d="M0 228L87 249L175 287L262 309L349 303L436 336L524 298L611 282L698 260L785 255L873 287L960 255L960 188L873 188L785 145L698 183L611 220L524 231L436 237L349 204L262 215L175 210L87 193L0 183Z" fill="#014537"></path><path d="M0 357L87 395L175 347L262 368L349 428L436 449L524 363L611 390L698 352L785 379L873 368L960 401L960 253L873 285L785 253L698 258L611 280L524 296L436 334L349 301L262 307L175 285L87 247L0 226Z" fill="#024f42"></path><path d="M0 541L87 541L175 541L262 541L349 541L436 541L524 541L611 541L698 541L785 541L873 541L960 541L960 399L873 366L785 377L698 350L611 388L524 361L436 447L349 426L262 366L175 345L87 393L0 355Z" fill="#02594e"></path></svg>
